src/16/outline/archive.svg

<svg width="16" height="16" viewBox="0 0 16 16" fill="none" xmlns="http://www.w3.org/2000/svg">
<path d="M6.75 8C6.55109 8 6.36032 8.07902 6.21967 8.21967C6.07902 8.36032 6 8.55109 6 8.75C6 8.94891 6.07902 9.13968 6.21967 9.28033C6.36032 9.42098 6.55109 9.5 6.75 9.5H9.25C9.44891 9.5 9.63968 9.42098 9.78033 9.28033C9.92098 9.13968 10 8.94891 10 8.75C10 8.55109 9.92098 8.36032 9.78033 8.21967C9.63968 8.07902 9.44891 8 9.25 8H6.75Z" fill="black"/>
<path fill-rule="evenodd" clip-rule="evenodd" d="M2.11923e-07 2.75C2.11923e-07 1.784 0.784 1 1.75 1H14.25C15.216 1 16 1.784 16 2.75V4.25C16 4.948 15.591 5.55 15 5.832V12.75C15 13.3467 14.7629 13.919 14.341 14.341C13.919 14.7629 13.3467 15 12.75 15H3.25C2.65326 15 2.08097 14.7629 1.65901 14.341C1.23705 13.919 1 13.3467 1 12.75V5.832C0.700659 5.69001 0.447774 5.46596 0.27075 5.18591C0.0937262 4.90586 -0.000162806 4.58131 2.11923e-07 4.25V2.75ZM13.5 12.75V6H2.5V12.75C2.5 13.164 2.836 13.5 3.25 13.5H12.75C12.9489 13.5 13.1397 13.421 13.2803 13.2803C13.421 13.1397 13.5 12.9489 13.5 12.75ZM14.5 4.25C14.5 4.3163 14.4737 4.37989 14.4268 4.42678C14.3799 4.47366 14.3163 4.5 14.25 4.5H1.75C1.6837 4.5 1.62011 4.47366 1.57322 4.42678C1.52634 4.37989 1.5 4.3163 1.5 4.25V2.75C1.5 2.6837 1.52634 2.62011 1.57322 2.57322C1.62011 2.52634 1.6837 2.5 1.75 2.5H14.25C14.3163 2.5 14.3799 2.52634 14.4268 2.57322C14.4737 2.62011 14.5 2.6837 14.5 2.75V4.25Z" fill="black"/>
</svg>

<svg xmlns="http://www.w3.org/2000/svg" width="16" height="16" fill="currentColor">
  <path d="M6.75 8a.75.75 0 0 0 0 1.5h2.5a.75.75 0 0 0 0-1.5h-2.5Z"/>
  <path fill-rule="evenodd" d="M0 2.75C0 1.784.784 1 1.75 1h12.5c.966 0 1.75.784 1.75 1.75v1.5c0 .698-.409 1.3-1 1.582v6.918A2.25 2.25 0 0 1 12.75 15h-9.5A2.25 2.25 0 0 1 1 12.75V5.832A1.75 1.75 0 0 1 0 4.25v-1.5Zm13.5 10V6h-11v6.75c0 .414.336.75.75.75h9.5a.75.75 0 0 0 .75-.75Zm1-8.5a.25.25 0 0 1-.25.25H1.75a.25.25 0 0 1-.25-.25v-1.5a.25.25 0 0 1 .25-.25h12.5a.25.25 0 0 1 .25.25v1.5Z" clip-rule="evenodd"/>
</svg>
